X: 20461
T: John Joe McElroy's
R: barndance
M: 4/4
K: Amajor
|:c>d|e2 a2 c2 e>c|A2 c>A E2- E>F|E>FG>A B2 (3Bcd|(3fgf e>e c2 c>d|
e2 a>a c2 e>e|A>B (3cBA E2- E>^D|E>FG>A B>cd>[Be]|c2 A>^G A2:|
|:(3EFG|F>GF>E F>GA>B|c>eB>e (3cec F2|(3cec B2 (3ABA G2|F>AG>E F>GA>G|
F2 (3GFE F2 (3GAB|c2 (3eBe (3cec F>B|(3cec (3BcB (3ABA (3GAG|F>A (3GFE F2:|

